icons/Document/folder-transfer-line.svg

<svg viewBox="0 0 24 24" xmlns="http://www.w3.org/2000/svg"><path d="M12.4142 5H21C21.5523 5 22 5.44772 22 6V20C22 20.5523 21.5523 21 21 21H3C2.44772 21 2 20.5523 2 20V4C2 3.44772 2.44772 3 3 3H10.4142L12.4142 5ZM4 5V19H20V7H11.5858L9.58579 5H4ZM12 12V9L16 13L12 17V14H8V12H12Z"/></svg>

<svg xmlns="http://www.w3.org/2000/svg" viewBox="0 0 24 24">
    <g>
        <path fill="none" d="M0 0h24v24H0z"/>
        <path d="M12.414 5H21a1 1 0 0 1 1 1v14a1 1 0 0 1-1 1H3a1 1 0 0 1-1-1V4a1 1 0 0 1 1-1h7.414l2 2zM4 5v14h16V7h-8.414l-2-2H4zm8 7V9l4 4-4 4v-3H8v-2h4z"/>
    </g>
</svg>
